X:1
T:BADINERIE (Guitar)
T:BADINERIE (Guitar) 
T:J-S Bach
T:Cochener
T:Cochener
C:Jean Sébastien Bach
Z:Cochener
%%score { 1 | 2 }
L:1/8
Q:1/4=120
M:2/4
K:D
V:1 treble-8 nm="Guitare électrique" snm="Guit. El."
V:2 tab stafflines=6 strings=E2,A2,D3,G3,B3,E4 nostems 
V:1
 bd'/b/ fb/f/ | df/d/ B2 | F/B/d/B/ c/B/c/B/ | ^A/c/e/c/ dB | bd'/b/ fb/f/ | df/d/ B2 | %6
 d/c/d d/c/d | bd({de)} dc | f/^e/f f/e/f | d'f{fg} f^e | c/f/a/f/ ^g/f/g/f/ | %11
 ^e/^g/b/^g/ a/g/a/g/ | f/a/f/^e/ f/b/f/^e/ | f/c'/f/^e/ f/d'/f/^e/ | f/d'/c'/b/ c'/a/^g/f/ | %15
 aT^g f2 :: fa/f/ cf/c/ | Ac/A/ F2 | =cB e^d/f/ | ag/f/ ge | gb/g/ eg/e/ | ce/c/ A2- | %22
 A/d/f/d/ e/d/e/d/ | c/e/g/e/ f/e/f/e/ | d/f/d/c/ d/g/d/c/ | d/a/d/c/ d/b/d/c/ | %26
 d/b/a/g/ a/f/e/d/ | fTe d2 | f/e/f f/e/f | d'f{fg} fe | e/d/e e/d/e | c'e ed | bd'/b/{a} g2- | %33
 gb/4(a/4g/4f/4) e2- | e(g/4f/4)(e/4d/4) =c/e/g/e/ | =c/B/c/B/ ^AF | GF B^A/c/ | %37
 ed/c/ dB/4c/4d/4e/4 | fd/f/ bf | e/d/c/d/ B2 :| %40
V:2
 !1!B !1!d/ !1!B/ !2!F !1!B/ !2!F/ | !3!D !2!F/ !3!D/ !4!B,2 | %2
 !4!F,/ !3!B,/ !2!D/ !3!B,/ !2!C/ !3!B,/ !2!C/ !3!B,/ | !3!^A,/ !2!C/ !2!E/ !2!C/ !2!D !3!B, | %4
 !1!B !1!d/ !1!B/ !2!F !1!B/ !2!F/ | !3!D !2!F/ !3!D/ !4!B,2 | !3!D/ !3!C/ !3!D !3!D/ !3!C/ !3!D | %7
 !1!B !3!D({!3!D!3!E)} !3!D !4!C | !2!F/ !2!^E/ !2!F !2!F/ !2!E/ !2!F | %9
 !1!d !2!F{!2!F!2!G} !2!F !3!^E | !4!C/ !3!F/ !2!A/ !3!F/ !2!^G/ !3!F/ !2!G/ !3!F/ | %11
 !3!^E/ !2!^G/ !2!B/ !2!^G/ !2!A/ !2!G/ !2!A/ !2!G/ | %12
 !3!F/ !2!A/ !3!F/ !3!^E/ !3!F/ !2!B/ !3!F/ !3!^E/ | %13
 !3!F/ !1!c/ !3!F/ !3!^E/ !3!F/ !1!d/ !3!F/ !3!^E/ | %14
 !3!F/ !1!d/ !1!c/ !2!B/ !1!c/ !2!A/ !2!^G/ !3!F/ | !2!A T!2!^G !3!F2 :: %16
 !2!F !1!A/ !2!F/ !3!C !2!F/ !3!C/ | !4!A, !3!C/ !4!A,/ !5!F,2 | !4!=C !4!B, !3!E !3!^D/ !3!F/ | %19
 !2!A !2!G/ !3!F/ !2!G !3!E | !2!G !1!B/ !2!G/ !3!E !2!G/ !3!E/ | !4!C !3!E/ !4!C/ !4!A,2- | %22
 !4!A,/ !3!D/ !2!F/ !3!D/ !2!E/ !3!D/ !2!E/ !3!D/ | %23
 !3!C/ !2!E/ !2!G/ !2!E/ !2!F/ !2!E/ !2!F/ !2!E/ | %24
 !3!D/ !2!F/ !3!D/ !3!C/ !3!D/ !2!G/ !3!D/ !3!C/ | %25
 !3!D/ !1!A/ !3!D/ !3!C/ !3!D/ !1!B/ !3!D/ !3!C/ | %26
 !3!D/ !1!B/ !1!A/ !2!G/ !1!A/ !2!F/ !2!E/ !3!D/ | !2!F T!2!E !3!D2 | %28
 !2!F/ !2!E/ !2!F !2!F/ !2!E/ !2!F | !1!d !2!F{!2!F!2!G} !2!F !3!E | %30
 !3!E/ !3!D/ !3!E !3!E/ !3!D/ !3!E | !1!c !2!E !2!E !3!D | !1!B !1!d/ !1!B/{!2!A} !2!G2- | %33
 !2!G !1!B/4 (!2!A/4 !2!G/4 !2!F/4) !3!E2- | %34
 !3!E (!2!G/4 !2!F/4) (!3!E/4 !3!D/4) !4!=C/ !3!E/ !2!G/ !3!E/ | %35
 !4!=C/ !4!B,/ !4!C/ !4!B,/ !4!^A, !5!F, | !5!G, !5!F, !4!B, !4!^A,/ !3!C/ | %37
 !3!E !3!D/ !3!C/ !3!D !4!B,/4 !3!C/4 !3!D/4 !3!E/4 | !2!F !3!D/ !2!F/ !1!B !2!F | %39
 !3!E/ !3!D/ !3!C/ !3!D/ !4!B,2 :| %40

